Catalina-light/apps/scalable/emacs.svg

<?xml version="1.0" encoding="UTF-8" standalone="no"?>
<svg
   xmlns:dc="http://purl.org/dc/elements/1.1/"
   xmlns:cc="http://creativecommons.org/ns#"
   xmlns:rdf="http://www.w3.org/1999/02/22-rdf-syntax-ns#"
   xmlns:svg="http://www.w3.org/2000/svg"
   xmlns="http://www.w3.org/2000/svg"
   xmlns:xlink="http://www.w3.org/1999/xlink"
   xmlns:sodipodi="http://sodipodi.sourceforge.net/DTD/sodipodi-0.dtd"
   xmlns:inkscape="http://www.inkscape.org/namespaces/inkscape"
   height="136.53333"
   viewBox="0 0 136.53333 136.53333"
   width="136.53333"
   version="1.1"
   id="svg59"
   sodipodi:docname="emacs.svg"
   inkscape:version="0.92.4 5da689c313, 2019-01-14">
  <metadata
     id="metadata65">
    <rdf:RDF>
      <cc:Work
         rdf:about="">
        <dc:format>image/svg+xml</dc:format>
        <dc:type
           rdf:resource="http://purl.org/dc/dcmitype/StillImage" />
        <dc:title></dc:title>
      </cc:Work>
    </rdf:RDF>
  </metadata>
  <defs
     id="defs63">
    <linearGradient
       inkscape:collect="always"
       id="linearGradient865">
      <stop
         style="stop-color:#5104ea;stop-opacity:1"
         offset="0"
         id="stop861" />
      <stop
         style="stop-color:#8e58fa;stop-opacity:1"
         offset="1"
         id="stop863" />
    </linearGradient>
    <linearGradient
       inkscape:collect="always"
       id="linearGradient857">
      <stop
         style="stop-color:#f1f1f1;stop-opacity:1"
         offset="0"
         id="stop853" />
      <stop
         style="stop-color:#d9dad9;stop-opacity:1"
         offset="1"
         id="stop855" />
    </linearGradient>
    <linearGradient
       inkscape:collect="always"
       xlink:href="#linearGradient857"
       id="linearGradient859"
       x1="73.908607"
       y1="8.693965"
       x2="79.908531"
       y2="137.96426"
       gradientUnits="userSpaceOnUse" />
    <linearGradient
       inkscape:collect="always"
       xlink:href="#linearGradient865"
       id="linearGradient867"
       x1="68.113281"
       y1="119.14643"
       x2="68.113281"
       y2="8.78125"
       gradientUnits="userSpaceOnUse" />
  </defs>
  <sodipodi:namedview
     pagecolor="#ffffff"
     bordercolor="#666666"
     borderopacity="1"
     objecttolerance="10"
     gridtolerance="10"
     guidetolerance="10"
     inkscape:pageopacity="0"
     inkscape:pageshadow="2"
     inkscape:window-width="1920"
     inkscape:window-height="1031"
     id="namedview61"
     showgrid="false"
     inkscape:zoom="2.4444904"
     inkscape:cx="-76.45373"
     inkscape:cy="54.622267"
     inkscape:window-x="0"
     inkscape:window-y="26"
     inkscape:window-maximized="1"
     inkscape:current-layer="svg59"
     showguides="false" />
  <linearGradient
     id="a">
    <stop
       offset="0"
       stop-color="#9760ef"
       id="stop2" />
    <stop
       offset="1"
       stop-color="#c054f2"
       stop-opacity="0"
       id="stop4" />
  </linearGradient>
  <linearGradient
     id="b">
    <stop
       offset="0"
       stop-color="#17c7e7"
       id="stop7" />
    <stop
       offset="1"
       stop-color="#c054f2"
       stop-opacity="0"
       id="stop9" />
  </linearGradient>
  <linearGradient
     id="c"
     gradientUnits="userSpaceOnUse"
     x1="62.04421"
     x2="66.81698"
     y1="5.831234"
     y2="47.148641">
    <stop
       offset="0"
       stop-color="#e83c2b"
       id="stop12" />
    <stop
       offset="1"
       stop-color="#c054f2"
       stop-opacity=".792157"
       id="stop14" />
  </linearGradient>
  <linearGradient
     id="d"
     gradientUnits="userSpaceOnUse"
     x1="88.22553"
     x2="38.18116"
     xlink:href="#b"
     y1="119.556361"
     y2="35.285226"
     gradientTransform="translate(-227.27608,-22.607353)" />
  <linearGradient
     id="e"
     gradientUnits="userSpaceOnUse"
     x1="61.6262"
     x2="95.3216"
     y1="48.640058"
     y2="103.021981">
    <stop
       offset="0"
       stop-color="#f66456"
       id="stop18" />
    <stop
       offset="1"
       stop-color="#d9493e"
       stop-opacity="0"
       id="stop20" />
  </linearGradient>
  <linearGradient
     id="f"
     gradientUnits="userSpaceOnUse"
     x1="32.31499"
     x2="61.76681"
     xlink:href="#a"
     y1="92.483823"
     y2="57.318029" />
  <linearGradient
     id="g"
     gradientUnits="userSpaceOnUse"
     x1="96.53194"
     x2="61.76681"
     xlink:href="#b"
     y1="97.690601"
     y2="59.053621" />
  <linearGradient
     id="h"
     gradientUnits="userSpaceOnUse"
     x1="139.34325"
     x2="61.76681"
     xlink:href="#a"
     y1="-7.023515"
     y2="59.053621" />
  <filter
     id="i"
     color-interpolation-filters="sRGB"
     height="1.108812"
     width="1.139866"
     x="-.069933"
     y="-.054406">
    <feGaussianBlur
       stdDeviation="1.9764485"
       id="feGaussianBlur26" />
  </filter>
  <path
     style="color:#000000;font-style:normal;font-variant:normal;font-weight:normal;font-stretch:normal;font-size:medium;line-height:normal;font-family:sans-serif;font-variant-ligatures:normal;font-variant-position:normal;font-variant-caps:normal;font-variant-numeric:normal;font-variant-alternates:normal;font-feature-settings:normal;text-indent:0;text-align:start;text-decoration:none;text-decoration-line:none;text-decoration-style:solid;text-decoration-color:#000000;letter-spacing:normal;word-spacing:normal;text-transform:none;writing-mode:lr-tb;direction:ltr;text-orientation:mixed;dominant-baseline:auto;baseline-shift:baseline;text-anchor:start;white-space:normal;shape-padding:0;clip-rule:nonzero;display:inline;overflow:visible;visibility:visible;opacity:1;isolation:auto;mix-blend-mode:normal;color-interpolation:sRGB;color-interpolation-filters:linearRGB;solid-color:#000000;solid-opacity:1;vector-effect:none;fill:url(#linearGradient859);fill-opacity:1;fill-rule:nonzero;stroke:none;stroke-width:6;stroke-linecap:butt;stroke-linejoin:miter;stroke-miterlimit:4;stroke-dasharray:none;stroke-dashoffset:0;stroke-opacity:1;color-rendering:auto;image-rendering:auto;shape-rendering:auto;text-rendering:auto;enable-background:accumulate"
     d="m 68.113281,2.2167969 c -36.979431,0 -67.0214841,30.0420531 -67.0214841,67.0214841 0,36.979429 30.0420531,67.021489 67.0214841,67.021489 36.979429,0 67.021489,-30.04206 67.021489,-67.021489 0,-36.979431 -30.04206,-67.0214841 -67.021489,-67.0214841 z"
     id="circle29"
     inkscape:connector-curvature="0"
     sodipodi:nodetypes="sssss" />
  <path
     style="opacity:1;fill:url(#linearGradient867);fill-opacity:1;stroke:none;stroke-width:3.79999995;stroke-linecap:round;stroke-linejoin:round;stroke-miterlimit:4;stroke-dasharray:none;stroke-dashoffset:0;stroke-opacity:0.05323193;paint-order:fill markers stroke"
     d="M 68.113281,8.78125 C 34.723662,8.7809529 7.6559529,35.848662 7.65625,69.238281 7.655954,102.6279 34.723662,129.69561 68.113281,129.69531 101.5029,129.69561 128.57061,102.6279 128.57031,69.238281 128.57061,35.848662 101.5029,8.780954 68.113281,8.78125 Z"
     id="path839"
     inkscape:connector-curvature="0"
     sodipodi:nodetypes="ccccc" />
  <path
     id="path849-9"
     d="m 50.303627,97.991991 c 0,0 3.498039,1.015689 8.154404,1.596363 1.885727,0.235166 9.060613,1.057056 14.561572,1.035486 0,0 6.699736,0.009 10.398129,-0.51775 3.869617,-0.549676 6.061994,-1.25119 7.281938,-2.651139 0.03185,-0.333813 0.588888,-1.421912 -0.915261,-2.471114 C 85.938892,92.30126 80.967533,91.566904 71.311095,89.273721 60.632973,86.589048 57.441964,84.018385 55.847717,82.157767 54.336295,80.293146 56.131421,76.420825 64.735639,74.521016 69.092101,73.460874 85.31729,73.266093 85.31729,73.266093 80.66239,69.570426 71.923267,62.953682 70.137049,61.546584 c -1.566667,-1.23409 -4.091349,-3.127926 -4.36275,-4.820255 -0.366088,-1.647458 2.227167,-2.440725 3.600101,-2.532101 4.423737,-0.30508 10.464355,0.213559 15.833909,1.28135 2.698924,0.536746 3.172986,0.45763 3.172986,0.45763 3.844049,0.183171 6.833868,-1.830501 6.681292,-6.071215 -0.03064,-4.301763 -4.331522,-7.75097 -9.09142,-7.901655 -4.482627,-0.141884 -15.528765,0.640674 -15.528765,0.640674 12.874482,2.654284 14.979257,3.331635 15.65074,4.881451 0.396601,0.915241 -0.662513,1.825264 -4.210179,1.647438 C 78.020681,48.936462 70.10666,48.001123 70.10666,48.001123 62.571135,46.841768 57.323554,45.743567 55.035609,48.733319 c -1.494845,1.953294 0.213558,4.332152 0.884748,5.735476 2.989814,5.216983 8.159853,8.796129 11.440561,11.318589 1.234467,0.949109 5.003424,3.050802 5.003424,3.050802 -11.715316,-3.203373 -21.049844,-1.403385 -26.970375,1.708488 -6.803266,4.027218 -5.639698,10.822939 5.155996,17.176245 6.37615,3.752464 9.551022,5.555239 19.990856,6.837008 6.102233,0.973021 7.011585,1.371132 6.965268,1.879082 -0.06539,0.715116 -7.222629,0.986077 -9.189921,1.121778 -5.004892,0.345151 -17.948534,0.431476 -18.013293,0.431476 z"
     inkscape:connector-curvature="0"
     style="fill:#ffffff;stroke-width:2.09576321" />
</svg>

<svg width="136.53" height="136.53" version="1.1" viewBox="0 0 136.53 136.53" xmlns="http://www.w3.org/2000/svg">
<defs>
<linearGradient id="linearGradient859" x1="73.909" x2="79.909" y1="8.694" y2="137.96" gradientUnits="userSpaceOnUse"/>
<linearGradient id="linearGradient867" x1="68.113" x2="68.113" y1="119.15" y2="8.7812" gradientUnits="userSpaceOnUse"/>
</defs>
<filter x="-.069933" y="-.054406" width="1.1399" height="1.1088" color-interpolation-filters="sRGB">
<feGaussianBlur stdDeviation="1.9764485"/>
</filter>
<path d="m68.113 2.2168c-36.979 0-67.021 30.042-67.021 67.021 0 36.979 30.042 67.021 67.021 67.021 36.979 0 67.021-30.042 67.021-67.021 0-36.979-30.042-67.021-67.021-67.021z" color="#000000" color-rendering="auto" dominant-baseline="auto" fill="url(#linearGradient859)" image-rendering="auto" shape-rendering="auto" solid-color="#000000" style="font-feature-settings:normal;font-variant-alternates:normal;font-variant-caps:normal;font-variant-ligatures:normal;font-variant-numeric:normal;font-variant-position:normal;isolation:auto;mix-blend-mode:normal;shape-padding:0;text-decoration-color:#000000;text-decoration-line:none;text-decoration-style:solid;text-indent:0;text-orientation:mixed;text-transform:none;white-space:normal"/>
<path d="m68.113 8.7812c-33.39-2.971e-4 -60.457 27.067-60.457 60.457-2.96e-4 33.39 27.067 60.457 60.457 60.457 33.39 3e-4 60.457-27.067 60.457-60.457 3e-4 -33.39-27.067-60.457-60.457-60.457z" fill="url(#linearGradient867)" style="paint-order:fill markers stroke"/>
<path d="m50.304 97.992s3.498 1.0157 8.1544 1.5964c1.8857 0.23517 9.0606 1.0571 14.562 1.0355 0 0 6.6997 9e-3 10.398-0.51775 3.8696-0.54968 6.062-1.2512 7.2819-2.6511 0.03185-0.33381 0.58889-1.4219-0.91526-2.4711-3.8455-2.6826-8.8169-3.4169-18.473-5.7101-10.678-2.6847-13.869-5.2553-15.463-7.116-1.5114-1.8646 0.2837-5.7369 8.8879-7.6368 4.3565-1.0601 20.582-1.2549 20.582-1.2549-4.6549-3.6957-13.394-10.312-15.18-11.72-1.5667-1.2341-4.0913-3.1279-4.3628-4.8203-0.36609-1.6475 2.2272-2.4407 3.6001-2.5321 4.4237-0.30508 10.464 0.21356 15.834 1.2814 2.6989 0.53675 3.173 0.45763 3.173 0.45763 3.844 0.18317 6.8339-1.8305 6.6813-6.0712-0.03064-4.3018-4.3315-7.751-9.0914-7.9017-4.4826-0.14188-15.529 0.64067-15.529 0.64067 12.874 2.6543 14.979 3.3316 15.651 4.8815 0.3966 0.91524-0.66251 1.8253-4.2102 1.6474-3.8623-0.19344-11.776-1.1288-11.776-1.1288-7.5355-1.1594-12.783-2.2576-15.071 0.7322-1.4948 1.9533 0.21356 4.3322 0.88475 5.7355 2.9898 5.217 8.1599 8.7961 11.441 11.319 1.2345 0.94911 5.0034 3.0508 5.0034 3.0508-11.715-3.2034-21.05-1.4034-26.97 1.7085-6.8033 4.0272-5.6397 10.823 5.156 17.176 6.3762 3.7525 9.551 5.5552 19.991 6.837 6.1022 0.97302 7.0116 1.3711 6.9653 1.8791-0.06539 0.71512-7.2226 0.98608-9.1899 1.1218-5.0049 0.34515-17.949 0.43148-18.013 0.43148z" fill="#fff" stroke-width="2.0958"/>
</svg>
